packages/core/src/svgs/tokens/branded/ANKRETH.svg

<svg width="24" height="24" viewBox="0 0 24 24" fill="none" xmlns="http://www.w3.org/2000/svg">
<path d="M3.11111 7.92805V15.5838C3.11111 16.1949 3.41112 16.7615 3.90001 17.067L11.4668 21.7782C11.9668 22.0838 12.5724 22.0727 13.0613 21.7505L20.1336 17.0726C20.3696 16.9096 20.562 16.6912 20.6937 16.4364C20.8255 16.1816 20.8926 15.8983 20.8892 15.6115V8.41695C20.8892 7.81693 20.6002 7.26137 20.1336 6.95582L13.0224 2.25019C12.7978 2.0982 12.5353 2.01194 12.2644 2.00116C11.9935 1.99036 11.7249 2.05544 11.489 2.18907L3.96112 6.4058C3.69759 6.56183 3.48011 6.78488 3.3308 7.05228C3.18149 7.31967 3.10568 7.62185 3.11111 7.92805Z" fill="#FFE81C"/>
<path d="M12.0004 14.2227L9.22266 12.5559L12.0004 17.0005V14.2227Z" fill="#8C800F"/>
<path d="M12.001 14.2227L14.7789 12.5559L12.001 17.0005V14.2227Z" fill="#332E06"/>
<path d="M12.0004 10.3339V6.44495L9.22266 12.0006L12.0004 10.3339Z" fill="#8C800F"/>
<path d="M12.001 10.3339V6.44495L14.7789 12.0006L12.001 10.3339Z" fill="#332E06"/>
<path d="M12.001 13.6671V10.3337L14.7789 12.0004L12.001 13.6671Z" fill="#141302"/>
<path d="M12.0004 13.6671V10.3337L9.22266 12.0004L12.0004 13.6671Z" fill="#383306"/>
</svg>

<svg xmlns="http://www.w3.org/2000/svg" width="24" height="24" fill="none" viewBox="0 0 24 24">
    <path fill="#FFE81C" d="M3.111 7.928v7.656c0 .61.3 1.178.789 1.483l7.567 4.711c.5.306 1.105.295 1.594-.027l7.073-4.678a1.75 1.75 0 0 0 .755-1.462V8.418c0-.6-.289-1.156-.755-1.461L13.022 2.25a1.46 1.46 0 0 0-1.533-.06L3.961 6.405a1.73 1.73 0 0 0-.85 1.522"/>
    <path fill="#8C800F" d="m12 14.223-2.777-1.667L12 17z"/>
    <path fill="#332E06" d="m12.001 14.223 2.778-1.667L12 17z"/>
    <path fill="#8C800F" d="M12 10.334V6.445L9.223 12z"/>
    <path fill="#332E06" d="M12.001 10.334V6.445L14.779 12z"/>
    <path fill="#141302" d="M12.001 13.667v-3.333L14.779 12z"/>
    <path fill="#383306" d="M12 13.667v-3.333L9.223 12z"/>
</svg>
